X: 27318
T: Mist Covered Mountain, The
R: jig
M: 6/8
K: Adorian
G|EAA ABd|eAB AGE|G3 GAB|dBA GED|
EAA ABd|eAB AGE|efg dBG|BAG A2:|
a|age a2b|age edB|AGE G2A|BAB AGE|
age a2b|age edB|AGE G2A|BAG A3|
age a2b|age edB|AGE G2A|BAB GED|
EDE G2A|B2A Bcd|efg dBG|BAG A3||

